icons/message-3-line.svg

<svg viewBox="0 0 24 24" fill="currentColor" xmlns="http://www.w3.org/2000/svg"><path d="M2 8.99374C2 5.68349 4.67654 3 8.00066 3H15.9993C19.3134 3 22 5.69478 22 8.99374V21H8.00066C4.68659 21 2 18.3052 2 15.0063V8.99374ZM20 19V8.99374C20 6.79539 18.2049 5 15.9993 5H8.00066C5.78458 5 4 6.78458 4 8.99374V15.0063C4 17.2046 5.79512 19 8.00066 19H20ZM14 11H16V13H14V11ZM8 11H10V13H8V11Z"/></svg>

<svg xmlns="http://www.w3.org/2000/svg" viewBox="0 0 24 24">
    <g>
        <path fill="none" d="M0 0h24v24H0z"/>
        <path d="M2 8.994A5.99 5.99 0 0 1 8 3h8c3.313 0 6 2.695 6 5.994V21H8c-3.313 0-6-2.695-6-5.994V8.994zM20 19V8.994A4.004 4.004 0 0 0 16 5H8a3.99 3.99 0 0 0-4 3.994v6.012A4.004 4.004 0 0 0 8 19h12zm-6-8h2v2h-2v-2zm-6 0h2v2H8v-2z"/>
    </g>
</svg>
